icons/4_Outdated/Autodesk v1.svg

<svg width="1024" height="1024" viewBox="0 0 1024 1024" fill="none" xmlns="http://www.w3.org/2000/svg">
<g clip-path="url(#clip0_3_752)">
<path d="M512 1024C794.77 1024 1024 794.77 1024 512C1024 229.23 794.77 0 512 0C229.23 0 0 229.23 0 512C0 794.77 229.23 1024 512 1024Z" fill="#728DBE"/>
<path d="M414.17 252.339C461.95 252.539 509.76 252.169 557.54 252.399C568.05 252.109 578.8 257.949 581.65 268.579C648.89 427.459 716.007 586.379 783 745.339C736.26 745.459 689.56 745.659 642.85 745.249C625.65 703.159 607.59 661.419 590.02 619.539C543.37 649.049 496.17 677.659 449.55 707.229C425.73 721.779 401.89 737.669 374.41 744.349C360.79 747.459 343.16 745.719 335.75 732.119C313.27 691.119 290.9 649.999 269 608.709C276.58 615.189 286 619.279 296.16 619.079C394.05 618.989 491.9 619.249 589.79 618.929C542.823 507.509 495.823 396.099 448.79 284.699C445.22 276.309 441.94 267.099 434.44 261.319C428.7 256.319 421.23 254.469 414.17 252.339ZM275.59 559.589C271.29 570.099 268.68 583.589 276.4 593.229C282.79 602.089 294.4 604.379 304.69 604.559C335.01 604.619 365.31 604.499 395.6 604.559C424.533 536.345 453.39 468.115 482.17 399.869C465.29 361.209 449.73 321.969 432.79 283.339C428.96 273.839 420.3 264.749 409.12 266.579C396.6 267.999 392 281.419 388 291.529C350.52 380.875 313.05 470.229 275.59 559.589Z" fill="white"/>
</g>
<defs>
<clipPath id="clip0_3_752">
<rect width="1024" height="1024" fill="white"/>
</clipPath>
</defs>
</svg>

<svg xmlns="http://www.w3.org/2000/svg" width="1024" height="1024" fill="none">
   <g clip-path="url(#a)">
      <path fill="#728DBE" d="M512 1024c282.77 0 512-229.23 512-512S794.77 0 512 0 0 229.23 0 512s229.23 512 512 512Z"/>
      <path fill="#fff" d="M414.17 252.339c47.78.2 95.59-.17 143.37.06 10.51-.29 21.26 5.55 24.11 16.18 67.24 158.88 134.357 317.8 201.35 476.76-46.74.12-93.44.32-140.15-.09-17.2-42.09-35.26-83.83-52.83-125.71-46.65 29.51-93.85 58.12-140.47 87.69-23.82 14.55-47.66 30.44-75.14 37.12-13.62 3.11-31.25 1.37-38.66-12.23-22.48-41-44.85-82.12-66.75-123.41 7.58 6.48 17 10.57 27.16 10.37 97.89-.09 195.74.17 293.63-.15a639558.76 639558.76 0 0 0-141-334.23c-3.57-8.39-6.85-17.6-14.35-23.38-5.74-5-13.21-6.85-20.27-8.98Zm-138.58 307.25c-4.3 10.51-6.91 24 .81 33.64 6.39 8.86 18 11.15 28.29 11.33 30.32.06 60.62-.06 90.91 0 28.933-68.214 57.79-136.444 86.57-204.69-16.88-38.66-32.44-77.9-49.38-116.53-3.83-9.5-12.49-18.59-23.67-16.76-12.52 1.42-17.12 14.84-21.12 24.95-37.48 89.346-74.95 178.7-112.41 268.06Z"/>
   </g>
   <defs>
      <clipPath id="a">
         <path fill="#fff" d="M0 0h1024v1024H0z"/>
      </clipPath>
   </defs>
</svg>
